Origami/16x16/apps/QOwnNotes.svg

<svg width="16" height="16" version="1" xmlns="http://www.w3.org/2000/svg">
 <path d="m14.8571 4e-8s1.1429 0 1.1429 1.1429v13.714c0 1.143-1.1429 1.143-1.1429 1.143h-8.8571l-6-6v-8.8571c0-1.1429 1.143-1.1429 1.143-1.1429z" style="fill:#303d75"/>
 <path d="m0 10h5.1c0.497 0 0.9 0.403 0.9 0.9v5.1z" style="fill:#44559e"/>
 <path d="m7.9999999 0.99999809a3.5000006 3.5000006 0 0 0 -3.4999999 3.4999998 3.5000006 3.5000006 0 0 0 0.04004 0.500977 2.5000004 2.5000004 0 0 0 -0.04004 -9.75e-4 2.5000004 2.5000004 0 0 0 -2.5 2.5 2.5000004 2.5000004 0 0 0 2.5 2.5000001h6.5a3.0000005 3.0000005 0 0 0 3 -3.0000001 3.0000005 3.0000005 0 0 0 -2.534179 -2.960938 3.5000006 3.5000006 0 0 0 -3.4658211 -3.0390623zm-1e-3 1h1e-3c1.2596738 0.0018 2.3087001 0.9220846 2.4746101 2.1708988a1.0001 1.0001 0 0 0 0.835937 0.856445c0.979046 0.153886 1.688569 0.982567 1.689453 1.973633-5.5e-4 1.115932-0.883927 1.999022-2 1.999023h-6.5c-0.8402705-1e-6 -1.499999-0.659729-1.5-1.5-1e-6 -0.840272 0.659728-1.499999 1.5-1.5 1e-3 3.5e-5 0.00195-3.7e-5 0.00295 0a1.0001 1.0001 0 0 0 1.025391 -1.15039c-0.017846-0.116512-0.027131-0.23371-0.028341-0.351563 0.00107-1.3912792 1.1076069-2.4975168 2.4990239-2.4980468z" style="fill:#5d8cb9"/>
</svg>

<svg xmlns="http://www.w3.org/2000/svg" width="16" height="16" version="1">
 <path style="fill:#303d75" d="m 14.8571,4e-8 c 0,0 1.1429,0 1.1429,1.14289996 l 0,13.714 c 0,1.143 -1.1429,1.143 -1.1429,1.143 l -8.8571,0 -6,-6 0,-8.8571 C 0,-9.996e-5 1.143,-9.996e-5 1.143,-9.996e-5 Z"/>
 <path style="fill:#44559e" d="m 0,10 5.1,0 C 5.597,10 6,10.403 6,10.9 L 6,16 Z"/>
 <path style="fill:#5d8cb9" d="M 7.9999999,0.99999809 A 3.5000006,3.5000006 0 0 0 4.5,4.4999979 3.5000006,3.5000006 0 0 0 4.54004,5.0009749 2.5000004,2.5000004 0 0 0 4.5,4.9999999 2.5000004,2.5000004 0 0 0 2,7.4999999 2.5000004,2.5000004 0 0 0 4.5,10 L 11,10 A 3.0000005,3.0000005 0 0 0 14,6.9999999 3.0000005,3.0000005 0 0 0 11.465821,4.0390619 3.5000006,3.5000006 0 0 0 7.9999999,0.99999959 Z m -10e-4,1.00000001 10e-4,0 c 1.2596738,0.0018 2.3087001,0.9220846 2.4746101,2.1708988 a 1.0001,1.0001 0 0 0 0.835937,0.856445 c 0.979046,0.153886 1.688569,0.982567 1.689453,1.973633 -5.5e-4,1.115932 -0.883927,1.999022 -2,1.999023 l -6.5,0 c -0.8402705,-1e-6 -1.499999,-0.659729 -1.5,-1.5 -1e-6,-0.840272 0.659728,-1.499999 1.5,-1.5 0.001,3.5e-5 0.00195,-3.7e-5 0.00295,0 a 1.0001,1.0001 0 0 0 1.025391,-1.15039 C 5.510495,4.7330959 5.50121,4.6158979 5.5,4.4980449 5.50107,3.1067657 6.6076069,2.0005281 7.9990239,1.9999981 Z"/>
</svg>
